X: 19
T: Carol of the Bells (harmony)
C: Monday
K: C
M: 3/4
L: 1/8
z6 | z6 | z6 | z6 |: !>!vE6 | !>!D6 |
!>!C6 | !>!B,6 | !>!E6 | !>!D6 | !>!C6 | !>!B,6|
!tenuto!E2 EE .E2 | !tenuto!E2 EE .E2 | E2 EE E2 | E2 EE E2 | G2 FG E2 | G2 FG E2 |
G2 FG E2 | G2 FG E2 | vE2 EE E2 | E2 EE E2 | C2 CC C2 | B,2 B,B, B,2 |
B,6 | F2 F2 E2 | B,6 | F2 F2 E2 | B,6 | A,6 | D6 |
C6 | (B,6 | B,6) | (B,6 | B,6) :| z6 | v!p!!fermata!E6 |]

% Straight from _Strings Extraordinaire!_
%% transpose 0
